;FLAVOR:Marlin
;TIME:10252
;Filament used: 6.19642m
;Layer height: 0.15
;MINX:67.7
;MINY:77.7
;MINZ:0.2
;MAXX:167.3
;MAXY:157.3
;MAXZ:27.5
;Generated with Cura_SteamEngine 4.1.0
M140 S60
M105
M190 S60
M104 S200
M105
M109 S200
M82 ;absolute extrusion mode
; Ender 3 Custom Start G-code
G28 ; Home all axes
G92 E0 ; Reset Extruder
G1 Z2.0 F3000 ; Move Z Axis up little to prevent scratching of Heat Bed
G1 X0.1 Y20 Z0.3 F5000.0 ; Move to start position
G1 X0.1 Y200.0 Z0.3 F1500.0 E15 ; Draw the first line
G1 X0.4 Y200.0 Z0.3 F5000.0 ; Move to side a little
G1 X0.4 Y20 Z0.3 F1500.0 E30 ; Draw the second line
G92 E0 ; Reset Extruder
G1 Z2.0 F3000 ; Move Z Axis up little to prevent scratching of Heat Bed
; End of custom start GCode
G92 E0
G92 E0
G1 F2400 E-5
;LAYER_COUNT:183
;LAYER:0
M107
M204 S500
M205 X10 Y10
G0 F3600 X70.688 Y79.455 Z0.2
;TYPE:SKIRT
G1 F2400 E0
G1 F1800 X71.324 Y78.988 E0.02624
G1 X72.004 Y78.587 E0.0525
G1 X72.722 Y78.257 E0.07878
G1 X73.469 Y78.002 E0.10504
G1 X74.238 Y77.823 E0.1313
G1 X75.022 Y77.723 E0.15758
G1 X75.617 Y77.7 E0.17739
G1 X159.383 Y77.7 E2.96346
G1 X160.172 Y77.74 E2.98973
G1 X160.952 Y77.859 E3.01598
G1 X161.717 Y78.057 E3.04226
G1 X162.457 Y78.331 E3.0685
G1 X163.166 Y78.679 E3.09477
G1 X163.837 Y79.097 E3.12107
G1 X164.461 Y79.58 E3.14731
G1 X164.898 Y79.985 E3.16713
G1 X165.015 Y80.102 E3.17263
G1 X165.545 Y80.688 E3.19891
G1 X166.012 Y81.324 E3.22515
G1 X166.413 Y82.004 E3.25141
G1 X166.743 Y82.722 E3.27769
G1 X166.998 Y83.469 E3.30395
G1 X167.177 Y84.238 E3.33021
G1 X167.277 Y85.022 E3.35649
G1 X167.3 Y85.617 E3.3763
G1 X167.3 Y149.383 E5.49717
G1 X167.26 Y150.172 E5.52344
G1 X167.141 Y150.952 E5.54968
G1 X166.943 Y151.717 E5.57597
G1 X166.669 Y152.457 E5.60221
G1 X166.321 Y153.166 E5.62848
G1 X165.903 Y153.837 E5.65477
G1 X165.42 Y154.461 E5.68102
G1 X165.015 Y154.898 E5.70084
G1 X164.898 Y155.015 E5.70634
G1 X164.312 Y155.545 E5.73262
G1 X163.676 Y156.012 E5.75886
G1 X162.996 Y156.413 E5.78512
G1 X162.278 Y156.743 E5.8114
G1 X161.531 Y156.998 E5.83766
G1 X160.762 Y157.177 E5.86392
G1 X159.978 Y157.277 E5.8902
G1 X159.383 Y157.3 E5.91001
G1 X75.617 Y157.3 E8.69608
G1 X74.828 Y157.26 E8.72235
G1 X74.048 Y157.141 E8.7486
G1 X73.283 Y156.943 E8.77488
G1 X72.543 Y156.669 E8.80112
G1 X71.834 Y156.321 E8.82739
G1 X71.163 Y155.903 E8.85369
G1 X70.539 Y155.42 E8.87993
G1 X70.102 Y155.015 E8.89975
G1 X69.985 Y154.898 E8.90525
G1 X69.455 Y154.312 E8.93153
G1 X68.988 Y153.676 E8.95777
G1 X68.587 Y152.996 E8.98403
G1 X68.257 Y152.278 E9.01031
G1 X68.002 Y151.531 E9.03657
G1 X67.823 Y150.762 E9.06283
G1 X67.723 Y149.978 E9.08911
G1 X67.7 Y149.383 E9.10892
G1 X67.7 Y85.617 E11.22978
G1 X67.74 Y84.828 E11.25606
G1 X67.859 Y84.048 E11.2823
G1 X68.057 Y83.283 E11.30859
G1 X68.331 Y82.543 E11.33483
G1 X68.679 Y81.834 E11.3611
G1 X69.097 Y81.163 E11.38739
G1 X69.58 Y80.539 E11.41364
G1 X69.985 Y80.102 E11.43346
G1 X70.102 Y79.985 E11.43896
G1 X70.688 Y79.455 E11.46524
G0 F3600 X70.956 Y79.753
G1 F1800 X71.578 Y79.3 E11.49083
G1 X72.243 Y78.914 E11.51641
G1 X72.945 Y78.599 E11.542
G1 X73.676 Y78.359 E11.56759
G1 X74.427 Y78.196 E11.59315
G1 X75.192 Y78.112 E11.61874
G1 X75.617 Y78.1 E11.63289
G1 X159.383 Y78.1 E14.41895
G1 X160.151 Y78.14 E14.44453
G1 X160.911 Y78.259 E14.47012
G1 X161.654 Y78.457 E14.49569
G1 X162.373 Y78.731 E14.52128
G1 X163.059 Y79.078 E14.54685
G1 X163.706 Y79.494 E14.57244
G1 X164.306 Y79.975 E14.59801
G1 X164.616 Y80.267 E14.61218
G1 X164.733 Y80.384 E14.61768
G1 X165.247 Y80.956 E14.64326
G1 X165.7 Y81.578 E14.66885
G1 X166.086 Y82.243 E14.69443
G1 X166.401 Y82.945 E14.72002
G1 X166.641 Y83.676 E14.74561
G1 X166.804 Y84.427 E14.77117
G1 X166.888 Y85.192 E14.79677
G1 X166.9 Y85.617 E14.81091
G1 X166.9 Y149.383 E16.93177
G1 X166.86 Y150.151 E16.95735
G1 X166.741 Y150.911 E16.98294
G1 X166.543 Y151.654 E17.00851
G1 X166.269 Y152.373 E17.0341
G1 X165.922 Y153.059 E17.05967
G1 X165.506 Y153.706 E17.08526
G1 X165.025 Y154.306 E17.11083
G1 X164.733 Y154.616 E17.125
G1 X164.616 Y154.733 E17.1305
G1 X164.044 Y155.247 E17.15608
G1 X163.422 Y155.7 E17.18167
G1 X162.757 Y156.086 E17.20724
G1 X162.055 Y156.401 E17.23284
G1 X161.324 Y156.641 E17.25843
G1 X160.573 Y156.804 E17.28399
G1 X159.808 Y156.888 E17.30958
G1 X159.383 Y156.9 E17.32372
G1 X75.617 Y156.9 E20.10979
G1 X74.849 Y156.86 E20.13537
G1 X74.089 Y156.741 E20.16096
G1 X73.346 Y156.543 E20.18653
G1 X72.627 Y156.269 E20.21212
G1 X71.941 Y155.922 E20.23769
G1 X71.294 Y155.506 E20.26328
G1 X70.694 Y155.025 E20.28885
G1 X70.384 Y154.733 E20.30302
G1 X70.267 Y154.616 E20.30852
G1 X69.753 Y154.044 E20.3341
G1 X69.3 Y153.422 E20.35969
G1 X68.914 Y152.757 E20.38527
G1 X68.599 Y152.055 E20.41086
G1 X68.359 Y151.324 E20.43645
G1 X68.196 Y150.573 E20.46201
G1 X68.112 Y149.808 E20.4876
G1 X68.1 Y149.383 E20.50175
G1 X68.1 Y85.617 E22.62261
G1 X68.14 Y84.849 E22.64819
G1 X68.259 Y84.089 E22.67378
G1 X68.457 Y83.346 E22.69935
G1 X68.731 Y82.627 E22.72494
G1 X69.078 Y81.941 E22.75051
G1 X69.494 Y81.294 E22.77609
G1 X69.975 Y80.694 E22.80167
G1 X70.267 Y80.384 E22.81584
G1 X70.384 Y80.267 E22.82134
G1 X70.956 Y79.753 E22.84692
G0 F3600 X71.224 Y80.05
G1 F1800 X71.83 Y79.613 E22.87177
G1 X72.48 Y79.242 E22.89666
G1 X73.166 Y78.943 E22.92155
G1 X73.88 Y78.719 E22.94644
G1 X74.613 Y78.572 E22.9713
G1 X75.617 Y78.5 E23.00478
G1 X159.383 Y78.5 E25.79085
G1 X160.13 Y78.54 E25.81573
G1 X160.868 Y78.659 E25.84059
G1 X161.59 Y78.857 E25.86549
G1 X162.286 Y79.13 E25.89036
G1 X162.949 Y79.477 E25.91525
G1 X163.572 Y79.892 E25.94015
G1 X164.333 Y80.55 E25.97361
G1 X164.45 Y80.667 E25.97911
G1 X164.95 Y81.224 E26.00401
G1 X165.387 Y81.83 E26.02886
G1 X165.758 Y82.48 E26.05375
G1 X166.057 Y83.166 E26.07864
G1 X166.281 Y83.88 E26.10353
G1 X166.428 Y84.613 E26.12839
G1 X166.5 Y85.617 E26.16187
G1 X166.5 Y149.383 E28.28274
G1 X166.46 Y150.13 E28.30762
G1 X166.341 Y150.868 E28.33248
G1 X166.143 Y151.59 E28.35738
G1 X165.87 Y152.286 E28.38225
G1 X165.523 Y152.949 E28.40714
G1 X165.108 Y153.572 E28.43203
G1 X164.45 Y154.333 E28.46549
G1 X164.333 Y154.45 E28.471
G1 X163.776 Y154.95 E28.49589
G1 X163.17 Y155.387 E28.52074
G1 X162.52 Y155.758 E28.54564
G1 X161.834 Y156.057 E28.57053
G1 X161.12 Y156.281 E28.59541
G1 X160.387 Y156.428 E28.62028
G1 X159.383 Y156.5 E28.65376
G1 X75.617 Y156.5 E31.43983
G1 X74.87 Y156.46 E31.46471
G1 X74.132 Y156.341 E31.48957
G1 X73.41 Y156.143 E31.51447
G1 X72.714 Y155.87 E31.53934
G1 X72.051 Y155.523 E31.56423
G1 X71.428 Y155.108 E31.58912
G1 X70.667 Y154.45 E31.62258
G1 X70.55 Y154.333 E31.62809
G1 X70.05 Y153.776 E31.65298
G1 X69.613 Y153.17 E31.67783
G1 X69.242 Y152.52 E31.70273
G1 X68.943 Y151.834 E31.72761
G1 X68.719 Y151.12 E31.7525
G1 X68.572 Y150.387 E31.77737
G1 X68.5 Y149.383 E31.81085
G1 X68.5 Y85.617 E33.93171
G1 X68.54 Y84.87 E33.95659
G1 X68.659 Y84.132 E33.98146
G1 X68.857 Y83.41 E34.00636
G1 X69.13 Y82.714 E34.03122
G1 X69.477 Y82.051 E34.05611
G1 X69.892 Y81.428 E34.08101
G1 X70.55 Y80.667 E34.11447
G1 X70.667 Y80.55 E34.11997
G1 X71.224 Y80.05 E34.14487
G0 F3600 X71.491 Y80.349
G1 F1800 X72.082 Y79.926 E34.16904
G1 X72.716 Y79.572 E34.19319
G1 X73.385 Y79.289 E34.21735
G1 X74.081 Y79.081 E34.24151
G1 X74.796 Y78.951 E34.26569
G1 X75.617 Y78.9 E34.29304
G1 X159.383 Y78.9 E37.07911
G1 X160.108 Y78.94 E37.10326
G1 X160.825 Y79.059 E37.12744
G1 X161.524 Y79.257 E37.1516
G1 X162.197 Y79.53 E37.17576
G1 X162.836 Y79.875 E37.19991
G1 X163.433 Y80.289 E37.22407
G1 X164.05 Y80.833 E37.25143
G1 X164.167 Y80.95 E37.25693
G1 X164.651 Y81.491 E37.28108
G1 X165.074 Y82.082 E37.30525
G1 X165.428 Y82.716 E37.3294
G1 X165.711 Y83.385 E37.35356
G1 X165.919 Y84.081 E37.37772
G1 X166.049 Y84.796 E37.40189
G1 X166.1 Y85.617 E37.42925
G1 X166.1 Y149.383 E39.55012
G1 X166.06 Y150.108 E39.57427
G1 X165.941 Y150.825 E39.59844
G1 X165.743 Y151.524 E39.62261
G1 X165.47 Y152.197 E39.64676
G1 X165.125 Y152.836 E39.67092
G1 X164.711 Y153.433 E39.69508
G1 X164.167 Y154.05 E39.72244
G1 X164.05 Y154.167 E39.72794
G1 X163.509 Y154.651 E39.75208
G1 X162.918 Y155.074 E39.77626
G1 X162.284 Y155.428 E39.80041
G1 X161.615 Y155.711 E39.82457
G1 X160.919 Y155.919 E39.84873
G1 X160.204 Y156.049 E39.8729
G1 X159.383 Y156.1 E39.90026
G1 X75.617 Y156.1 E42.68633
G1 X74.892 Y156.06 E42.71048
G1 X74.175 Y155.941 E42.73465
G1 X73.476 Y155.743 E42.75882
G1 X72.803 Y155.47 E42.78297
G1 X72.164 Y155.125 E42.80712
G1 X71.567 Y154.711 E42.83129
G1 X70.95 Y154.167 E42.85865
G1 X70.833 Y154.05 E42.86415
G1 X70.349 Y153.509 E42.88829
G1 X69.926 Y152.918 E42.91247
G1 X69.572 Y152.284 E42.93662
G1 X69.289 Y151.615 E42.96078
G1 X69.081 Y150.919 E42.98494
G1 X68.951 Y150.204 E43.00911
G1 X68.9 Y149.383 E43.03647
G1 X68.9 Y85.617 E45.15733
G1 X68.94 Y84.892 E45.18148
G1 X69.059 Y84.175 E45.20566
G1 X69.257 Y83.476 E45.22982
G1 X69.53 Y82.803 E45.25398
G1 X69.875 Y82.164 E45.27813
G1 X70.289 Y81.567 E45.30229
G1 X70.833 Y80.95 E45.32965
G1 X70.95 Y80.833 E45.33516
G1 X71.491 Y80.349 E45.3593
G0 F3600 X71.758 Y80.647
G1 F1800 X72.333 Y80.241 E45.38271
G1 X72.951 Y79.903 E45.40614
G1 X73.602 Y79.636 E45.42954
G1 X74.28 Y79.446 E45.45296
G1 X74.975 Y79.333 E45.47638
G1 X75.617 Y79.3 E45.49776
G1 X159.383 Y79.3 E48.28383
G1 X160.086 Y79.34 E48.30725
G1 X160.78 Y79.459 E48.33067
G1 X161.455 Y79.657 E48.35407
G1 X162.104 Y79.929 E48.37747
G1 X162.718 Y80.274 E48.4009
G1 X163.289 Y80.685 E48.4243
G1 X163.767 Y81.116 E48.4457
G1 X163.884 Y81.233 E48.45121
G1 X164.353 Y81.758 E48.47462
G1 X164.759 Y82.333 E48.49803
G1 X165.097 Y82.951 E48.52146
G1 X165.364 Y83.602 E48.54486
G1 X165.554 Y84.28 E48.56828
G1 X165.667 Y84.975 E48.5917
G1 X165.7 Y85.617 E48.61308
G1 X165.7 Y149.383 E50.73395
G1 X165.66 Y150.086 E50.75737
G1 X165.541 Y150.78 E50.78079
G1 X165.343 Y151.455 E50.80418
G1 X165.071 Y152.104 E50.82759
G1 X164.726 Y152.718 E50.85101
G1 X164.315 Y153.289 E50.87441
G1 X163.884 Y153.767 E50.89582
G1 X163.767 Y153.884 E50.90132
G1 X163.242 Y154.353 E50.92474
G1 X162.667 Y154.759 E50.94815
G1 X162.049 Y155.097 E50.97158
G1 X161.398 Y155.364 E50.99498
G1 X160.72 Y155.554 E51.0184
G1 X160.025 Y155.667 E51.04182
G1 X159.383 Y155.7 E51.0632
G1 X75.617 Y155.7 E53.84927
G1 X74.914 Y155.66 E53.87269
G1 X74.22 Y155.541 E53.89611
G1 X73.545 Y155.343 E53.9195
G1 X72.896 Y155.071 E53.94291
G1 X72.282 Y154.726 E53.96633
G1 X71.711 Y154.315 E53.98973
G1 X71.233 Y153.884 E54.01114
G1 X71.116 Y153.767 E54.01664
G1 X70.647 Y153.242 E54.04006
G1 X70.241 Y152.667 E54.06347
G1 X69.903 Y152.049 E54.0869
G1 X69.636 Y151.398 E54.1103
G1 X69.446 Y150.72 E54.13372
G1 X69.333 Y150.025 E54.15714
G1 X69.3 Y149.383 E54.17852
G1 X69.3 Y85.617 E56.29939
G1 X69.34 Y84.914 E56.3228
G1 X69.459 Y84.22 E56.34622
G1 X69.657 Y83.545 E56.36962
G1 X69.929 Y82.896 E56.39303
G1 X70.274 Y82.282 E56.41645
G1 X70.685 Y81.711 E56.43985
G1 X71.116 Y81.233 E56.46126
G1 X71.233 Y81.116 E56.46676
G1 X71.758 Y80.647 E56.49017
G0 F3600 X72.025 Y80.946
G1 F1800 X72.583 Y80.557 E56.5128
G1 X73.183 Y80.235 E56.53545
G1 X73.817 Y79.986 E56.5581
G1 X74.476 Y79.813 E56.58076
G1 X75.15 Y79.719 E56.6034
G1 X75.617 Y79.7 E56.61894
G1 X159.383 Y79.7 E59.40501
G1 X160.063 Y79.74 E59.42767
G1 X160.733 Y79.859 E59.4503
G1 X161.385 Y80.056 E59.47295
G1 X162.009 Y80.328 E59.49559
G1 X162.597 Y80.672 E59.51825
G1 X163.141 Y81.082 E59.54091
G1 X163.484 Y81.399 E59.55644
G1 X163.601 Y81.516 E59.56195
G1 X164.054 Y82.025 E59.58461
G1 X164.443 Y82.583 E59.60723
G1 X164.765 Y83.183 E59.62988
G1 X165.014 Y83.817 E59.65254
G1 X165.187 Y84.476 E59.6752
G1 X165.281 Y85.15 E59.69783
G1 X165.3 Y85.617 E59.71338
G1 X165.3 Y149.383 E61.83424
G1 X165.26 Y150.063 E61.8569
G1 X165.141 Y150.733 E61.87953
G1 X164.944 Y151.385 E61.90219
G1 X164.672 Y152.009 E61.92483
G1 X164.328 Y152.597 E61.94748
G1 X163.918 Y153.141 E61.97014
G1 X163.601 Y153.484 E61.98568
G1 X163.484 Y153.601 E61.99118
G1 X162.975 Y154.054 E62.01384
G1 X162.417 Y154.443 E62.03647
G1 X161.817 Y154.765 E62.05911
G1 X161.183 Y155.014 E62.08177
G1 X160.524 Y155.187 E62.10443
G1 X159.85 Y155.281 E62.12706
G1 X159.383 Y155.3 E62.14261
G1 X75.617 Y155.3 E64.92868
G1 X74.937 Y155.26 E64.95133
G1 X74.267 Y155.141 E64.97397
G1 X73.615 Y154.944 E64.99662
G1 X72.991 Y154.672 E65.01926
G1 X72.403 Y154.328 E65.04192
G1 X71.859 Y153.918 E65.06458
G1 X71.516 Y153.601 E65.08011
G1 X71.399 Y153.484 E65.08561
G1 X70.946 Y152.975 E65.10828
G1 X70.557 Y152.417 E65.1309
G1 X70.235 Y151.817 E65.15355
G1 X69.986 Y151.183 E65.1762
G1 X69.813 Y150.524 E65.19887
G1 X69.719 Y149.85 E65.2215
G1 X69.7 Y149.383 E65.23704
G1 X69.7 Y85.617 E67.35791
G1 X69.74 Y84.937 E67.38057
G1 X69.859 Y84.267 E67.4032
G1 X70.056 Y83.615 E67.42585
G1 X70.328 Y82.991 E67.44849
G1 X70.672 Y82.403 E67.47115
G1 X71.082 Y81.859 E67.49381
G1 X71.399 Y81.516 E67.50934
G1 X71.516 Y81.399 E67.51485
G1 X72.025 Y80.946 E67.53751
G0 F3600 X72.291 Y81.246
G1 F1800 X72.832 Y80.874 E67.55935
G1 X73.414 Y80.57 E67.58119
G1 X74.029 Y80.339 E67.60304
G1 X74.668 Y80.184 E67.62491
G1 X75.617 Y80.1 E67.65659
G1 X159.383 Y80.1 E70.44266
G1 X160.039 Y80.14 E70.46452
G1 X160.685 Y80.259 E70.48637
G1 X161.312 Y80.456 E70.50823
G1 X161.91 Y80.728 E70.53008
G1 X162.471 Y81.07 E70.55193
G1 X163.201 Y81.682 E70.58361
G1 X163.318 Y81.799 E70.58912
G1 X163.754 Y82.291 E70.61098
G1 X164.126 Y82.832 E70.63282
G1 X164.43 Y83.414 E70.65466
G1 X164.661 Y84.029 E70.67651
G1 X164.816 Y84.668 E70.69838
G1 X164.9 Y85.617 E70.73007
G1 X164.9 Y149.383 E72.85093
G1 X164.86 Y150.039 E72.87279
G1 X164.741 Y150.685 E72.89464
G1 X164.544 Y151.312 E72.9165
G1 X164.272 Y151.91 E72.93835
G1 X163.93 Y152.471 E72.9602
G1 X163.318 Y153.201 E72.99188
G1 X163.201 Y153.318 E72.99739
G1 X162.709 Y153.754 E73.01925
G1 X162.168 Y154.126 E73.04109
G1 X161.586 Y154.43 E73.06293
G1 X160.971 Y154.661 E73.08478
G1 X160.332 Y154.816 E73.10665
G1 X159.383 Y154.9 E73.13834
G1 X75.617 Y154.9 E75.9244
G1 X74.961 Y154.86 E75.94626
G1 X74.315 Y154.741 E75.96811
G1 X73.688 Y154.544 E75.98997
G1 X73.09 Y154.272 E76.01182
G1 X72.529 Y153.93 E76.03367
G1 X71.799 Y153.318 E76.06536
G1 X71.682 Y153.201 E76.07086
G1 X71.246 Y152.709 E76.09272
G1 X70.874 Y152.168 E76.11456
G1 X70.57 Y151.586 E76.1364
G1 X70.339 Y150.971 E76.15825
G1 X70.184 Y150.332 E76.18012
G1 X70.1 Y149.383 E76.21181
G1 X70.1 Y85.617 E78.33267
G1 X70.14 Y84.961 E78.35453
G1 X70.259 Y84.315 E78.37638
G1 X70.456 Y83.688 E78.39824
G1 X70.728 Y83.09 E78.42009
G1 X71.07 Y82.529 E78.44194
G1 X71.682 Y81.799 E78.47363
G1 X71.799 Y81.682 E78.47913
G1 X72.291 Y81.246 E78.50099
G0 F3600 X72.556 Y81.547
G1 F1800 X73.079 Y81.192 E78.52202
G1 X73.643 Y80.906 E78.54305
G1 X74.238 Y80.694 E78.56406
G1 X74.856 Y80.558 E78.58511
G1 X75.617 Y80.5 E78.61049
G1 X159.383 Y80.5 E81.39656
G1 X160.014 Y80.54 E81.41759
G1 X160.635 Y80.659 E81.43862
G1 X161.235 Y80.856 E81.45962
G1 X161.807 Y81.127 E81.48067
G1 X162.339 Y81.467 E81.50167
G1 X162.919 Y81.964 E81.52708
G1 X163.036 Y82.081 E81.53258
G1 X163.453 Y82.556 E81.5536
G1 X163.808 Y83.079 E81.57463
G1 X164.094 Y83.643 E81.59566
G1 X164.306 Y84.238 E81.61667
G1 X164.442 Y84.856 E81.63772
G1 X164.5 Y85.617 E81.6631
G1 X164.5 Y149.383 E83.78397
G1 X164.46 Y150.014 E83.805
G1 X164.341 Y150.635 E83.82603
G1 X164.144 Y151.235 E83.84703
G1 X163.873 Y151.807 E83.86808
G1 X163.533 Y152.339 E83.88908
G1 X163.036 Y152.919 E83.91449
G1 X162.919 Y153.036 E83.91999
G1 X162.444 Y153.453 E83.94101
G1 X161.921 Y153.808 E83.96204
G1 X161.357 Y154.094 E83.98307
G1 X160.762 Y154.306 E84.00408
G1 X160.144 Y154.442 E84.02512
G1 X159.383 Y154.5 E84.05051
G1 X75.617 Y154.5 E86.83658
G1 X74.986 Y154.46 E86.85761
G1 X74.365 Y154.341 E86.87864
G1 X73.765 Y154.144 E86.89964
G1 X73.193 Y153.873 E86.92069
G1 X72.661 Y153.533 E86.94169
G1 X72.081 Y153.036 E86.9671
G1 X71.964 Y152.919 E86.9726
G1 X71.547 Y152.444 E86.99362
G1 X71.192 Y151.921 E87.01465
G1 X70.906 Y151.357 E87.03568
G1 X70.694 Y150.762 E87.05669
G1 X70.558 Y150.144 E87.07773
G1 X70.5 Y149.383 E87.10312
G1 X70.5 Y85.617 E89.22398
G1 X70.54 Y84.986 E89.24501
G1 X70.659 Y84.365 E89.26604
G1 X70.856 Y83.765 E89.28705
G1 X71.127 Y83.193 E89.3081
